X: 039
M: C|
L: 1/4
K: D
dc de | f2 ff/g/ | ad Bd | c>B AA |\
dc de | fd gf | ed ec | d2 D :|
|: F/G/ |\
dc de | fd gf | ed ec | d2 D :|

